img/facebook.svg

<svg width="24" height="24" viewBox="0 0 24 24" fill="none" xmlns="http://www.w3.org/2000/svg">
<path d="M12 0C5.39999 0 0 5.40964 0 12.0723C0 18.0964 4.39199 23.0964 10.128 24V15.5663H7.07999V12.0723H10.128V9.40964C10.128 6.38554 11.916 4.72289 14.664 4.72289C15.972 4.72289 17.34 4.95181 17.34 4.95181V7.92771H15.828C14.34 7.92771 13.872 8.85542 13.872 9.80723V12.0723H17.208L16.668 15.5663H13.872V24C16.6997 23.5516 19.2746 22.103 21.1319 19.9157C22.9892 17.7284 24.0064 14.9466 24 12.0723C24 5.40964 18.6 0 12 0Z" fill="#73787C" fill-opacity="0.5"/>
</svg>

<svg width="24" height="24" fill="none" xmlns="http://www.w3.org/2000/svg"><path d="M12 0C5.4 0 0 5.41 0 12.072 0 18.096 4.392 23.096 10.128 24v-8.434H7.08v-3.494h3.048V9.41c0-3.024 1.788-4.687 4.536-4.687 1.308 0 2.676.229 2.676.229v2.976h-1.512c-1.488 0-1.956.927-1.956 1.88v2.264h3.336l-.54 3.494h-2.796V24a11.988 11.988 0 0 0 7.26-4.084A12.077 12.077 0 0 0 24 12.072C24 5.41 18.6 0 12 0z" fill="#73787C" fill-opacity=".5"/></svg>
